svg/heart final.svg

<svg xmlns="http://www.w3.org/2000/svg" width="39" height="36" fill="none"><path fill="red" d="M12 6H9v3h3V6ZM12 9H9v3h3V9ZM15 12h-3v3h3v-3ZM18 9h-3v3h3V9ZM15 6h-3v3h3V6ZM9 9H6v3h3V9ZM9 12H6v3h3v-3ZM9 15H6v3h3v-3ZM18 6h-3v3h3V6ZM12 15H9v3h3v-3ZM12 18H9v3h3v-3ZM15 15h-3v3h3v-3ZM15 18h-3v3h3v-3ZM15 21h-3v3h3v-3ZM18 15h-3v3h3v-3ZM18 12h-3v3h3v-3ZM18 21h-3v3h3v-3ZM18 18h-3v3h3v-3ZM18 24h-3v3h3v-3ZM27 6h3v3h-3V6ZM27 9h3v3h-3V9ZM24 9h3v3h-3V9ZM27 12h3v3h-3v-3ZM24 12h3v3h-3v-3ZM21 9h3v3h-3V9ZM24 6h3v3h-3V6ZM30 9h3v3h-3V9ZM30 12h3v3h-3v-3ZM30 15h3v3h-3v-3ZM21 6h3v3h-3V6ZM27 15h3v3h-3v-3ZM27 18h3v3h-3v-3ZM24 15h3v3h-3v-3ZM24 18h3v3h-3v-3ZM24 21h3v3h-3v-3ZM21 15h3v3h-3v-3ZM21 12h3v3h-3v-3ZM21 21h3v3h-3v-3ZM21 18h3v3h-3v-3ZM21 24h3v3h-3v-3ZM21 9h-3v3h3V9ZM21 15h-3v3h3v-3ZM21 12h-3v3h3v-3ZM21 21h-3v3h3v-3ZM21 18h-3v3h3v-3ZM21 24h-3v3h3v-3ZM21 27h-3v3h3v-3Z"/></svg>

<svg width="39" height="36" viewBox="0 0 39 36" fill="none" xmlns="http://www.w3.org/2000/svg">
<path d="M12 6H9V9H12V6Z" fill="#FF0000"/>
<path d="M12 9H9V12H12V9Z" fill="#FF0000"/>
<path d="M15 12H12V15H15V12Z" fill="#FF0000"/>
<path d="M18 9H15V12H18V9Z" fill="#FF0000"/>
<path d="M15 6H12V9H15V6Z" fill="#FF0000"/>
<path d="M9 9H6V12H9V9Z" fill="#FF0000"/>
<path d="M9 12H6V15H9V12Z" fill="#FF0000"/>
<path d="M9 15H6V18H9V15Z" fill="#FF0000"/>
<path d="M18 6H15V9H18V6Z" fill="#FF0000"/>
<path d="M12 15H9V18H12V15Z" fill="#FF0000"/>
<path d="M12 18H9V21H12V18Z" fill="#FF0000"/>
<path d="M15 15H12V18H15V15Z" fill="#FF0000"/>
<path d="M15 18H12V21H15V18Z" fill="#FF0000"/>
<path d="M15 21H12V24H15V21Z" fill="#FF0000"/>
<path d="M18 15H15V18H18V15Z" fill="#FF0000"/>
<path d="M18 12H15V15H18V12Z" fill="#FF0000"/>
<path d="M18 21H15V24H18V21Z" fill="#FF0000"/>
<path d="M18 18H15V21H18V18Z" fill="#FF0000"/>
<path d="M18 24H15V27H18V24Z" fill="#FF0000"/>
<path d="M27 6H30V9H27V6Z" fill="#FF0000"/>
<path d="M27 9H30V12H27V9Z" fill="#FF0000"/>
<path d="M24 9H27V12H24V9Z" fill="#FF0000"/>
<path d="M27 12H30V15H27V12Z" fill="#FF0000"/>
<path d="M24 12H27V15H24V12Z" fill="#FF0000"/>
<path d="M21 9H24V12H21V9Z" fill="#FF0000"/>
<path d="M24 6H27V9H24V6Z" fill="#FF0000"/>
<path d="M30 9H33V12H30V9Z" fill="#FF0000"/>
<path d="M30 12H33V15H30V12Z" fill="#FF0000"/>
<path d="M30 15H33V18H30V15Z" fill="#FF0000"/>
<path d="M21 6H24V9H21V6Z" fill="#FF0000"/>
<path d="M27 15H30V18H27V15Z" fill="#FF0000"/>
<path d="M27 18H30V21H27V18Z" fill="#FF0000"/>
<path d="M24 15H27V18H24V15Z" fill="#FF0000"/>
<path d="M24 18H27V21H24V18Z" fill="#FF0000"/>
<path d="M24 21H27V24H24V21Z" fill="#FF0000"/>
<path d="M21 15H24V18H21V15Z" fill="#FF0000"/>
<path d="M21 12H24V15H21V12Z" fill="#FF0000"/>
<path d="M21 21H24V24H21V21Z" fill="#FF0000"/>
<path d="M21 18H24V21H21V18Z" fill="#FF0000"/>
<path d="M21 24H24V27H21V24Z" fill="#FF0000"/>
<path d="M21 9H18V12H21V9Z" fill="#FF0000"/>
<path d="M21 15H18V18H21V15Z" fill="#FF0000"/>
<path d="M21 12H18V15H21V12Z" fill="#FF0000"/>
<path d="M21 21H18V24H21V21Z" fill="#FF0000"/>
<path d="M21 18H18V21H21V18Z" fill="#FF0000"/>
<path d="M21 24H18V27H21V24Z" fill="#FF0000"/>
<path d="M21 27H18V30H21V27Z" fill="#FF0000"/>
</svg>
